src/components/Home/icons/consultancy.svg

<svg width="21" height="20" viewBox="0 0 21 20" fill="none" xmlns="http://www.w3.org/2000/svg">
<g clip-path="url(#clip0_24_1093)">
<path fill-rule="evenodd" clip-rule="evenodd" d="M2.87747 1.5H15.4291C16.0148 1.5 16.5462 1.73684 16.9318 2.11783C17.3175 2.49961 17.556 3.02636 17.556 3.60535V5.27902H18.7435C19.2956 5.27902 19.7981 5.5024 20.1622 5.86279C20.5263 6.22318 20.752 6.71983 20.752 7.26715L20.7512 18.037C20.7504 18.1527 20.7071 18.2683 20.6199 18.3578C20.4415 18.5424 20.1446 18.5479 19.959 18.3705L17.7153 16.2373H7.09513C6.54301 16.2373 6.04049 16.014 5.6764 15.6536C5.31232 15.2932 5.08666 14.7965 5.08666 14.2492V13.2345H3.9728L1.54495 15.5435C1.3593 15.7202 1.06323 15.7154 0.883985 15.5309C0.796765 15.4406 0.752753 15.3257 0.752753 15.2101L0.751953 3.60596C0.751953 3.02694 0.991215 2.50022 1.3761 2.11844C1.76179 1.73666 2.29392 1.50061 2.87885 1.50061L2.87747 1.5ZM17.556 6.20657V11.1279C17.556 11.7077 17.3168 12.2336 16.9319 12.6154C16.5462 12.9972 16.0149 13.2332 15.4291 13.2332H6.02376V14.2479C6.02376 14.5386 6.14459 14.8031 6.33825 14.9956C6.53269 15.1881 6.79995 15.3069 7.09442 15.3069H17.9018C18.0402 15.3069 18.1651 15.3663 18.2499 15.4606L19.8134 16.9473V7.26488C19.8134 6.97419 19.6926 6.70963 19.4989 6.51637C19.3045 6.32389 19.0372 6.20507 18.7428 6.20507H17.5553L17.556 6.20657Z" fill="white"/>
</g>
<defs>
<clipPath id="clip0_24_1093">
<rect width="20" height="20" fill="white" transform="translate(0.751953)"/>
</clipPath>
</defs>
</svg>

<svg xmlns="http://www.w3.org/2000/svg" width="21" height="20" fill="none">
  <g clip-path="url(#a)">
    <path fill="#fff" fill-rule="evenodd" d="M2.877 1.5H15.43c.586 0 1.117.237 1.503.618.386.382.624.908.624 1.487V5.28h1.188c.552 0 1.054.223 1.418.584.364.36.59.857.59 1.404v10.77a.47.47 0 0 1-.792.334l-2.245-2.134H7.095a2.013 2.013 0 0 1-1.419-.583 1.971 1.971 0 0 1-.59-1.405v-1.014H3.974l-2.428 2.309a.471.471 0 0 1-.661-.013.46.46 0 0 1-.131-.32L.752 3.605c0-.58.24-1.106.624-1.488a2.132 2.132 0 0 1 1.503-.617L2.877 1.5Zm14.679 4.707v4.92c0 .58-.24 1.107-.624 1.488a2.13 2.13 0 0 1-1.503.618H6.024v1.015a1.072 1.072 0 0 0 1.07 1.059h10.808c.138 0 .263.06.348.154l1.563 1.486V7.265a1.072 1.072 0 0 0-1.07-1.06h-1.188l.001.002Z" clip-rule="evenodd"/>
  </g>
  <defs>
    <clipPath id="a">
      <path fill="#fff" d="M.752 0h20v20h-20z"/>
    </clipPath>
  </defs>
</svg>
